;FLAVOR:Marlin
;TIME:1952
;Filament used: 2.22631m
;Layer height: 0.2
;MINX:54.529
;MINY:57.478
;MINZ:0.3
;MAXX:134.303
;MAXY:105.275
;MAXZ:1.9
;Generated with Cura_SteamEngine 4.4.1
M140 S60
M105
M190 S60
M104 S205
M105
M109 S205
M82 ;absolute extrusion mode
M107 ;turn off fan
G28 ; X0 Y0 Z0 ; home X, Y and Z axis end-stops
G29 ; initiate z-probing
G0 X10 Y10 F7000 ; Go to front
G0 Z0.15 ; Drop to bed
G92 E0 ; zero the extruded length
G1 X20 E15 F500 ; Extrude 25mm of filament in a 4cm line
G92 E0 ; zero the extruded length
G1 E-1 F500 ; Retract a little
G1 X80 F4000 ; Quickly wipe away from the filament line
G1 Z3 ; Raise and begin printing.
G92 E0
G92 E0
G1 F2100 E-4.8
;LAYER_COUNT:9
;LAYER:0
M107
G0 F3600 X55.53 Y59.976 Z0.3
;TYPE:SKIRT
G1 F2100 E0
G1 F1200 X55.927 Y59.616 E0.03683
G1 X56.374 Y59.319 E0.07372
G1 X56.859 Y59.091 E0.11055
G1 X57.373 Y58.938 E0.14741
G1 X58.038 Y58.857 E0.19345
G1 X58.358 Y58.848 E0.21545
G1 X58.459 Y58.847 E0.22239
G1 X79.467 Y58.847 E1.66624
G1 X82.248 Y58.808 E1.8574
G1 X84.976 Y58.692 E2.04506
G1 X87.705 Y58.498 E2.23309
G1 X90.382 Y58.233 E2.41798
G1 X93.103 Y57.885 E2.60651
G1 X94.786 Y57.619 E2.72361
G1 X94.841 Y57.611 E2.72743
G1 X95.453 Y57.524 E2.76992
G1 X95.85 Y57.49 E2.7973
G1 X96.177 Y57.48 E2.81979
G1 X96.287 Y57.478 E2.82735
G1 X130.048 Y57.478 E5.14769
G1 X130.746 Y57.488 E5.19567
G1 X131.28 Y57.536 E5.23252
G1 X131.801 Y57.662 E5.26936
G1 X132.298 Y57.865 E5.30626
G1 X132.759 Y58.139 E5.34312
G1 X133.174 Y58.478 E5.37994
G1 X133.534 Y58.876 E5.41683
G1 X133.831 Y59.322 E5.45366
G1 X134.059 Y59.808 E5.49055
G1 X134.211 Y60.322 E5.52739
G1 X134.292 Y60.984 E5.57323
G1 X134.301 Y61.295 E5.59461
G1 X134.303 Y61.399 E5.60176
G1 X134.303 Y99.619 E8.22856
G1 X134.293 Y100.341 E8.27819
G1 X134.245 Y100.875 E8.31504
G1 X134.119 Y101.396 E8.35188
G1 X133.917 Y101.893 E8.38875
G1 X133.643 Y102.354 E8.42561
G1 X133.304 Y102.769 E8.46244
G1 X132.907 Y103.13 E8.49932
G1 X132.461 Y103.427 E8.53614
G1 X131.975 Y103.655 E8.57304
G1 X131.461 Y103.808 E8.6099
G1 X130.85 Y103.888 E8.65225
G1 X130.53 Y103.902 E8.67426
G1 X130.373 Y103.905 E8.68505
G1 X109.371 Y103.905 E10.12849
G1 X106.59 Y103.944 E10.31964
G1 X103.862 Y104.06 E10.5073
G1 X101.133 Y104.254 E10.69534
G1 X98.456 Y104.519 E10.88022
G1 X95.723 Y104.869 E11.06959
G1 X94.025 Y105.136 E11.18773
G1 X93.976 Y105.144 E11.19114
G1 X93.383 Y105.229 E11.23231
G1 X92.982 Y105.263 E11.25997
G1 X92.655 Y105.273 E11.28246
G1 X92.545 Y105.275 E11.29002
G1 X58.79 Y105.275 E13.60995
G1 X58.092 Y105.266 E13.65792
G1 X57.557 Y105.219 E13.69484
G1 X57.036 Y105.093 E13.73168
G1 X56.539 Y104.891 E13.76855
G1 X56.078 Y104.618 E13.80537
G1 X55.662 Y104.279 E13.84225
G1 X55.301 Y103.883 E13.87908
G1 X55.003 Y103.437 E13.91595
G1 X54.775 Y102.951 E13.95284
G1 X54.622 Y102.437 E13.9897
G1 X54.539 Y101.763 E14.03637
G1 X54.53 Y101.43 E14.05927
G1 X54.529 Y101.333 E14.06593
G1 X54.529 Y63.093 E16.69411
G1 X54.539 Y62.404 E16.74147
G1 X54.587 Y61.87 E16.77832
G1 X54.714 Y61.348 E16.81524
G1 X54.916 Y60.852 E16.85205
G1 X55.19 Y60.391 E16.88891
G1 X55.53 Y59.976 E16.92578
G0 F3600 X55.922 Y60.149
G1 F1200 X56.313 Y59.828 E16.96055
G1 X56.749 Y59.573 E16.99526
G1 X57.221 Y59.391 E17.03003
G1 X57.715 Y59.284 E17.06477
G1 X58.049 Y59.257 E17.0878
G1 X58.369 Y59.248 E17.1098
G1 X58.459 Y59.247 E17.11599
G1 X79.473 Y59.247 E18.56025
G1 X82.27 Y59.207 E18.7525
G1 X84.987 Y59.092 E18.93941
G1 X87.733 Y58.897 E19.12861
G1 X90.439 Y58.629 E19.3155
G1 X93.151 Y58.282 E19.50341
G1 X94.849 Y58.014 E19.62156
G1 X94.898 Y58.007 E19.62496
G1 X95.51 Y57.92 E19.66744
G1 X95.862 Y57.889 E19.69173
G1 X96.189 Y57.879 E19.71421
G1 X96.287 Y57.878 E19.72095
G1 X130.042 Y57.878 E22.04088
G1 X130.74 Y57.888 E22.08886
G1 X131.243 Y57.935 E22.12358
G1 X131.733 Y58.061 E22.15835
G1 X132.197 Y58.263 E22.19313
G1 X132.623 Y58.535 E22.22787
G1 X133.001 Y58.87 E22.26258
G1 X133.321 Y59.261 E22.29731
G1 X133.576 Y59.698 E22.33208
G1 X133.759 Y60.169 E22.36681
G1 X133.866 Y60.663 E22.40155
G1 X133.893 Y60.995 E22.42444
G1 X133.902 Y61.306 E22.44583
G1 X133.903 Y61.399 E22.45222
G1 X133.903 Y99.613 E25.07861
G1 X133.893 Y100.335 E25.12824
G1 X133.846 Y100.839 E25.16302
G1 X133.72 Y101.328 E25.19773
G1 X133.519 Y101.792 E25.23248
G1 X133.247 Y102.219 E25.26728
G1 X132.912 Y102.597 E25.30199
G1 X132.521 Y102.918 E25.33676
G1 X132.084 Y103.173 E25.37154
G1 X131.613 Y103.356 E25.40626
G1 X131.119 Y103.463 E25.441
G1 X130.833 Y103.488 E25.46074
G1 X130.513 Y103.502 E25.48275
G1 X130.373 Y103.505 E25.49237
G1 X109.365 Y103.505 E26.93622
G1 X106.568 Y103.545 E27.12848
G1 X103.851 Y103.66 E27.31538
G1 X101.105 Y103.855 E27.50458
G1 X98.399 Y104.123 E27.69147
G1 X95.681 Y104.471 E27.8798
G1 X93.963 Y104.741 E27.99932
G1 X93.919 Y104.748 E28.00239
G1 X93.326 Y104.833 E28.04356
G1 X92.97 Y104.864 E28.06812
G1 X92.643 Y104.874 E28.0906
G1 X92.545 Y104.875 E28.09734
G1 X58.795 Y104.875 E30.41693
G1 X58.097 Y104.866 E30.4649
G1 X57.593 Y104.819 E30.49969
G1 X57.103 Y104.694 E30.53445
G1 X56.639 Y104.493 E30.5692
G1 X56.213 Y104.222 E30.6039
G1 X55.834 Y103.887 E30.63867
G1 X55.513 Y103.496 E30.67344
G1 X55.258 Y103.06 E30.70815
G1 X55.074 Y102.589 E30.7429
G1 X54.967 Y102.095 E30.77764
G1 X54.939 Y101.752 E30.8013
G1 X54.93 Y101.419 E30.82419
G1 X54.929 Y101.333 E30.8301
G1 X54.929 Y63.099 E33.45787
G1 X54.939 Y62.41 E33.50523
G1 X54.987 Y61.906 E33.54002
G1 X55.113 Y61.417 E33.57473
G1 X55.314 Y60.953 E33.60948
G1 X55.586 Y60.527 E33.64422
G1 X55.922 Y60.149 E33.67898
G1 F2100 E28.87898
;MESH:F_CU.stl
G0 F3600 X58.543 Y61.782
G0 X58.543 Y62.861
G0 X62.082 Y68.853
G0 X72.143 Y84.55
G0 X74.68 Y87.861
G0 X82.378 Y98.756
G0 X82.186 Y100.203
;TYPE:WALL-INNER
G1 F2100 E33.67898
G1 F1200 X82.584 Y99.731 E33.72141
G1 X82.687 Y99.217 E33.75744
G1 X82.521 Y98.67 E33.79673
G1 X82.183 Y98.332 E33.82958
G1 X81.754 Y98.156 E33.86145
G1 X81.173 Y98.214 E33.90158
G1 X80.782 Y98.477 E33.93397
G1 X80.525 Y98.861 E33.96572
G1 X80.466 Y99.442 E34.00586
G1 X80.659 Y99.907 E34.04046
G1 X81.107 Y100.277 E34.0804
G1 X81.599 Y100.378 E34.11491
G1 X82.186 Y100.203 E34.15701
G0 F3600 X81.957 Y99.854
;TYPE:WALL-OUTER
G1 F1200 X82.212 Y99.552 E34.18418
G1 X82.275 Y99.237 E34.20626
G1 X82.167 Y98.882 E34.23176
G1 X81.957 Y98.672 E34.25217
G1 X81.694 Y98.564 E34.27171
G1 X81.313 Y98.602 E34.29803
G1 X81.071 Y98.765 E34.31808
G1 X80.913 Y99.001 E34.3376
G1 X80.874 Y99.382 E34.36392
G1 X80.99 Y99.662 E34.38475
G1 X81.285 Y99.905 E34.41102
G1 X81.581 Y99.966 E34.43179
G1 X81.957 Y99.854 E34.45875
G0 F3600 X82.086 Y99.702
G0 X82.421 Y99.986
G0 X85.344 Y100.135
;TYPE:WALL-INNER
G1 F1200 X85.936 Y100.313 E34.50124
G1 X86.421 Y100.214 E34.53526
G1 X86.866 Y99.85 E34.57477
G1 X87.065 Y99.389 E34.60928
G1 X87.011 Y98.807 E34.64946
G1 X86.735 Y98.385 E34.68411
G1 X86.224 Y98.11 E34.724
G1 X86.161 Y98.109 E34.72833
G1 X85.949 Y98.106 E34.7429
G1 X85.749 Y98.102 E34.75665
G1 X85.728 Y98.11 E34.75819
G1 X85.334 Y98.275 E34.78755
G1 X85.004 Y98.625 E34.82061
G1 X84.844 Y99.168 E34.85952
G1 X84.947 Y99.666 E34.89447
G1 X85.344 Y100.135 E34.9367
G0 F3600 X85.573 Y99.786
;TYPE:WALL-OUTER
G1 F1200 X85.955 Y99.901 E34.96412
G1 X86.244 Y99.842 E34.98439
G1 X86.537 Y99.602 E35.01042
G1 X86.657 Y99.324 E35.03123
G1 X86.622 Y98.943 E35.05753
G1 X86.456 Y98.689 E35.07838
G1 X86.12 Y98.508 E35.10461
G1 X85.826 Y98.503 E35.12482
G1 X85.567 Y98.611 E35.14411
G1 X85.361 Y98.83 E35.16477
G1 X85.256 Y99.185 E35.19021
G1 X85.318 Y99.485 E35.21127
G1 X85.573 Y99.786 E35.23838
G0 F3600 X85.764 Y99.843
G0 X85.637 Y100.265
G0 X85.099 Y99.594
G0 X85.844 Y97.731
;TYPE:WALL-INNER
G1 F1200 X85.865 Y97.738 E35.23956
G1 X85.954 Y97.767 E35.24503
G1 X86.158 Y97.712 E35.25847
G1 X86.542 Y97.607 E35.28583
G1 X86.929 Y97.233 E35.32282
G1 X87.103 Y96.644 E35.36503
G1 X86.934 Y96.056 E35.40707
G1 X86.543 Y95.675 E35.4446
G1 X85.952 Y95.517 E35.48664
G1 X85.367 Y95.7 E35.52877
G1 X85.012 Y96.095 E35.56527
G1 X84.871 Y96.494 E35.59435
G1 X84.946 Y97.088 E35.6355
G1 X85.347 Y97.572 E35.6787
G1 X85.844 Y97.731 E35.71456
G0 F3600 X85.963 Y97.35
;TYPE:WALL-OUTER
G1 F1200 X86.338 Y97.248 E35.74127
G1 X86.575 Y97.019 E35.76392
G1 X86.686 Y96.642 E35.79093
G1 X86.579 Y96.268 E35.81767
G1 X86.339 Y96.034 E35.84071
G1 X85.961 Y95.933 E35.8676
G1 X85.591 Y96.049 E35.89425
G1 X85.363 Y96.303 E35.91771
G1 X85.28 Y96.538 E35.93484
G1 X85.328 Y96.923 E35.9615
G1 X85.58 Y97.227 E35.98864
G1 X85.963 Y97.35 E36.01629
G0 F3600 X86.156 Y97.298
G0 X86.271 Y97.723
G0 X85.441 Y97.433
G0 X82.632 Y92.056
;TYPE:WALL-INNER
G1 F1200 X82.694 Y91.436 E36.05911
G1 X82.498 Y90.974 E36.0936
G1 X82.055 Y90.608 E36.1331
G1 X81.559 Y90.507 E36.16789
G1 X81.01 Y90.669 E36.20723
G1 X80.683 Y90.993 E36.23886
G1 X80.542 Y91.265 E36.25992
G1 X80.484 Y91.839 E36.29957
G1 X80.769 Y92.383 E36.34178
G1 X81.188 Y92.67 E36.37669
G1 X81.767 Y92.729 E36.41669
G1 X82.236 Y92.54 E36.45144
G1 X82.632 Y92.056 E36.49442
G0 F3600 X82.246 Y91.896
;TYPE:WALL-OUTER
G1 F1200 X82.286 Y91.498 E36.52191
G1 X82.168 Y91.22 E36.54267
G1 X81.877 Y90.98 E36.56859
G1 X81.577 Y90.919 E36.58963
G1 X81.22 Y91.024 E36.61521
G1 X81.009 Y91.233 E36.63562
G1 X80.932 Y91.381 E36.64708
G1 X80.894 Y91.76 E36.67326
G1 X81.077 Y92.109 E36.70035
G1 X81.33 Y92.282 E36.72141
G1 X81.709 Y92.321 E36.7476
G1 X81.991 Y92.207 E36.7685
G1 X82.246 Y91.896 E36.79614
G0 F3600 X82.266 Y91.697
G0 X82.703 Y91.741
G0 X80.709 Y88.931
G0 X80.453 Y87.97
;TYPE:WALL-INNER
G1 F1200 X80.392 Y88.591 E36.83903
G1 X80.573 Y89.024 E36.87128
G1 X80.921 Y89.359 E36.90448
G1 X81.468 Y89.519 E36.94365
G1 X81.963 Y89.417 E36.97839
G1 X82.403 Y89.052 E37.01768
G1 X82.597 Y88.592 E37.05199
G1 X82.543 Y88.014 E37.09189
G1 X82.267 Y87.592 E37.12654
G1 X81.756 Y87.317 E37.16643
G1 X81.283 Y87.309 E37.19894
G1 X80.847 Y87.489 E37.23136
G1 X80.453 Y87.97 E37.27409
G0 F3600 X80.839 Y88.13
;TYPE:WALL-OUTER
G1 F1200 X80.8 Y88.53 E37.30171
G1 X80.91 Y88.794 E37.32137
G1 X81.127 Y89.003 E37.34208
G1 X81.484 Y89.107 E37.36763
G1 X81.784 Y89.045 E37.38869
G1 X82.072 Y88.806 E37.41441
G1 X82.189 Y88.529 E37.43508
G1 X82.154 Y88.15 E37.46123
G1 X81.988 Y87.896 E37.48209
G1 X81.652 Y87.715 E37.50832
G1 X81.359 Y87.71 E37.52846
G1 X81.093 Y87.82 E37.54824
G1 X80.839 Y88.13 E37.57579
G0 F3600 X80.82 Y88.329
G0 X80.382 Y88.287
G0 X63.608 Y84.728
;TYPE:WALL-INNER
G1 F1200 X63.547 Y84.109 E37.61854
G1 X63.266 Y83.689 E37.65327
G1 X62.794 Y83.442 E37.68988
G1 X62.715 Y83.401 E37.696
G1 X62.277 Y83.444 E37.72625
G1 X62.107 Y83.462 E37.73799
G1 X62.106 Y83.463 E37.73809
G1 X61.691 Y83.739 E37.77235
G1 X61.435 Y84.211 E37.80925
G1 X61.393 Y84.535 E37.8317
G1 X61.491 Y84.981 E37.86309
G1 X61.855 Y85.417 E37.90212
G1 X62.312 Y85.609 E37.93619
G1 X62.883 Y85.559 E37.97559
G1 X63.313 Y85.279 E38.01085
G1 X63.608 Y84.728 E38.05381
G0 F3600 X63.198 Y84.646
;TYPE:WALL-OUTER
G1 F1200 X63.159 Y84.248 E38.08129
G1 X62.99 Y83.996 E38.10215
G1 X62.636 Y83.811 E38.1296
G1 X62.246 Y83.85 E38.15654
G1 X61.995 Y84.017 E38.17726
G1 X61.822 Y84.336 E38.2022
G1 X61.799 Y84.517 E38.21474
G1 X61.861 Y84.8 E38.23465
G1 X62.1 Y85.086 E38.26027
G1 X62.376 Y85.202 E38.28084
G1 X62.749 Y85.169 E38.30658
G1 X63.009 Y85 E38.32789
G1 X63.198 Y84.646 E38.35547
G0 F3600 X63.179 Y84.447
G0 X63.617 Y84.404
G0 X63.442 Y81.852
G0 X62.972 Y81.203
G0 X62.38 Y80.914
;TYPE:WALL-INNER
G1 F1200 X62.283 Y80.943 E38.36243
G1 X61.917 Y81.053 E38.3887
G1 X61.58 Y81.384 E38.42116
G1 X61.401 Y81.813 E38.45311
G1 X61.453 Y82.392 E38.49306
G1 X61.732 Y82.814 E38.52783
G1 X62.24 Y83.089 E38.56753
G1 X62.241 Y83.089 E38.5676
G1 X62.72 Y83.097 E38.59508
G1 X62.744 Y83.098 E38.59653
G1 X62.823 Y83.057 E38.60265
G1 X63.26 Y82.826 E38.63662
G1 X63.544 Y82.411 E38.67118
G1 X63.608 Y81.829 E38.71142
G1 X63.416 Y81.361 E38.74619
G1 X62.971 Y80.992 E38.78592
G1 X62.831 Y80.961 E38.79578
G1 X62.478 Y80.885 E38.82059
G1 X62.38 Y80.914 E38.82762
G0 F3600 X62.494 Y81.298
;TYPE:WALL-OUTER
G1 F1200 X62.127 Y81.408 E38.85395
G1 X61.918 Y81.613 E38.87407
G1 X61.808 Y81.876 E38.89366
G1 X61.842 Y82.256 E38.91988
G1 X62.01 Y82.51 E38.94081
G1 X62.345 Y82.691 E38.96698
G1 X62.648 Y82.696 E38.98781
G1 X62.986 Y82.518 E39.01407
G1 X63.157 Y82.268 E39.03488
G1 X63.199 Y81.886 E39.0613
G1 X63.084 Y81.605 E39.08216
G1 X62.791 Y81.362 E39.10833
G1 X62.494 Y81.298 E39.12921
G0 F3600 X62.303 Y81.355
G0 X62.178 Y80.934
G0 X62.199 Y80.565
;TYPE:WALL-INNER
G1 F1200 X62.289 Y80.613 E39.13553
G1 X62.451 Y80.599 E39.14447
G1 X62.811 Y80.566 E39.16587
G1 X62.898 Y80.557 E39.17188
G1 X63.32 Y80.28 E39.20657
G1 X63.615 Y79.73 E39.24947
G1 X63.559 Y79.121 E39.2915
G1 X63.283 Y78.699 E39.32615
G1 X62.796 Y78.437 E39.36416
G1 X62.772 Y78.424 E39.36604
G1 X62.665 Y78.423 E39.37339
G1 X62.297 Y78.416 E39.39869
G1 X62.271 Y78.427 E39.40063
G1 X61.894 Y78.584 E39.4287
G1 X61.587 Y78.889 E39.45844
G1 X61.409 Y79.317 E39.4903
G1 X61.461 Y79.896 E39.53025
G1 X61.74 Y80.319 E39.56508
G1 X62.199 Y80.565 E39.60087
G0 F3600 X62.372 Y80.204
;TYPE:WALL-OUTER
G1 F1200 X62.762 Y80.168 E39.62779
G1 X63.016 Y80.001 E39.64868
G1 X63.206 Y79.647 E39.67629
G1 X63.17 Y79.257 E39.70321
G1 X63.004 Y79.003 E39.72406
G1 X62.668 Y78.822 E39.75029
G1 X62.374 Y78.817 E39.7705
G1 X62.12 Y78.923 E39.78942
G1 X61.926 Y79.116 E39.80823
G1 X61.816 Y79.38 E39.82788
G1 X61.85 Y79.76 E39.8541
G1 X62.018 Y80.014 E39.87503
G1 X62.372 Y80.204 E39.90265
G0 F3600 X62.571 Y80.186
G0 X62.611 Y80.624
G0 X61.853 Y80.194
G0 X61.354 Y76.752
;TYPE:WALL-INNER
G1 F1200 X61.41 Y77.361 E39.94468
G1 X61.686 Y77.783 E39.97934
G1 X62.172 Y78.045 E40.01728
G1 X62.197 Y78.058 E40.01922
G1 X62.303 Y78.059 E40.02618
G1 X62.67 Y78.066 E40.04876
G1 X62.695 Y78.056 E40.05062
G1 X63.104 Y77.887 E40.08103
G1 X63.473 Y77.442 E40.12076
G1 X63.577 Y76.95 E40.15532
G1 X63.413 Y76.39 E40.19543
G1 X63.08 Y76.051 E40.22809
G1 X62.649 Y75.872 E40.26016
G1 X62.071 Y75.925 E40.30005
G1 X61.649 Y76.202 E40.33475
G1 X61.354 Y76.752 E40.37764
G0 F3600 X61.763 Y76.835
;TYPE:WALL-OUTER
G1 F1200 X61.799 Y77.225 E40.40456
G1 X61.965 Y77.479 E40.42541
G1 X62.301 Y77.66 E40.45164
G1 X62.594 Y77.665 E40.47179
G1 X62.859 Y77.555 E40.4915
G1 X63.102 Y77.262 E40.51767
G1 X63.165 Y76.966 E40.53847
G1 X63.057 Y76.599 E40.56476
G1 X62.851 Y76.389 E40.58498
G1 X62.587 Y76.279 E40.60463
G1 X62.207 Y76.314 E40.63086
G1 X61.953 Y76.481 E40.65175
G1 X61.763 Y76.835 E40.67937
G0 F3600 X61.781 Y77.034
G0 X61.343 Y77.074
G0 X63.931 Y68.095
;TYPE:WALL-INNER
G1 F1200 X63.913 Y67.901 E40.69276
G1 X63.525 Y67.418 E40.73534
G1 X63.038 Y67.221 E40.77144
G1 X62.469 Y67.279 E40.81075
G1 X62.073 Y67.547 E40.84361
G1 X61.83 Y67.914 E40.87387
G1 X61.76 Y68.498 E40.91429
G1 X61.946 Y68.945 E40.94757
G1 X62.274 Y69.271 E40.97935
G1 X62.829 Y69.442 E41.01926
G1 X63.322 Y69.347 E41.05377
G1 X63.771 Y68.98 E41.09363
G1 X63.943 Y68.583 E41.12336
G1 X63.97 Y68.519 E41.12814
G1 X63.951 Y68.311 E41.14249
G1 X63.931 Y68.095 E41.1574
G0 F3600 X63.526 Y68.058
;TYPE:WALL-OUTER
G1 F1200 X63.278 Y67.75 E41.18458
G1 X62.98 Y67.629 E41.20668
G1 X62.61 Y67.667 E41.23225
G1 X62.363 Y67.834 E41.25274
G1 X62.216 Y68.056 E41.27104
G1 X62.17 Y68.441 E41.29769
G1 X62.285 Y68.718 E41.3183
G1 X62.486 Y68.918 E41.33779
G1 X62.851 Y69.03 E41.36403
G1 X63.147 Y68.973 E41.38474
G1 X63.442 Y68.732 E41.41093
G1 X63.562 Y68.454 E41.43174
G1 X63.526 Y68.058 E41.45906
G0 F3600 X63.401 Y67.903
G0 X63.745 Y67.627
G0 X65.239 Y67.345
G0 X66.062 Y67.618
G0 X66.481 Y68.532
;TYPE:WALL-INNER
G1 F1200 X66.488 Y68.518 E41.46014
G1 X66.495 Y68.506 E41.46109
G1 X66.463 Y68.148 E41.4858
G1 X66.439 Y67.897 E41.50313
G1 X66.435 Y67.891 E41.50362
G1 X66.179 Y67.502 E41.53563
G1 X65.795 Y67.241 E41.56754
G1 X65.216 Y67.18 E41.60755
G1 X64.774 Y67.357 E41.64028
G1 X64.443 Y67.688 E41.67245
G1 X64.326 Y68.075 E41.70024
G1 X64.264 Y68.282 E41.71353
G1 X64.304 Y68.42 E41.72135
G1 X64.323 Y68.487 E41.72584
G1 X64.437 Y68.868 E41.75317
G1 X64.769 Y69.207 E41.78579
G1 X65.2 Y69.386 E41.81786
G1 X65.778 Y69.333 E41.85775
G1 X66.2 Y69.056 E41.89245
G1 X66.481 Y68.532 E41.93331
G0 F3600 X66.086 Y68.423
;TYPE:WALL-OUTER
